website/static/img/icons/rocket.svg

<svg fill="none" height="28" viewBox="0 0 28 28" width="28" xmlns="http://www.w3.org/2000/svg"><path d="m14.524 23.4682c.2299 1.2137-.1614 2.4827-1.0891 3.3802l-.3183.308c-.5126.4959-1.3437.4959-1.8563 0s-.5126-1.2999 0-1.7958l.3183-.308c.3796-.3672.4898-.9209.2783-1.3982-.5074-1.1453-1.5797-2.5285-3.22175-4.117-1.64205-1.5886-3.07175-2.626-4.25562-3.1169-.49333-.2046-1.0657-.098-1.44523.2692l-.31835.308c-.51259.4959-1.34367.4959-1.856261 0-.512593-.4959-.512593-1.3 0-1.7959l.318351-.3079c.92768-.8975 2.23939-1.2761 3.49399-1.0536 2.95511-8.63204 10.41477-12.978636 22.05477-12.978636.7249 0 1.3125.568526 1.3125 1.269846 0 11.26099-4.4928 18.47779-13.4153 21.33669zm-1.0978-2.3256c7.6113-2.3288 11.5477-8.1407 11.8669-17.72082-9.9025.30875-15.91008 4.11705-18.31718 11.48052 1.09894.6849 2.26739 1.6318 3.51548 2.8392 1.2481 1.2075 2.2269 2.3379 2.9348 3.4011zm4.0125-7.5825c-1.4498 0-2.6251-1.1371-2.6251-2.5397 0-1.40263 1.1753-2.53969 2.6251-2.53969 1.4499 0 2.6252 1.13706 2.6252 2.53969 0 1.4026-1.1753 2.5397-2.6252 2.5397zm-12.74128 7.991c.51259-.496 1.34367-.496 1.85626 0 .51259.4959.51259 1.2999 0 1.7958l-2.62515 2.5397c-.51259.4959-1.34367.4959-1.85626 0-.5126-.4959-.5126-1.3 0-1.7959z" fill="#ff694a"/></svg>

<svg width="28" height="28" viewBox="0 0 28 28" fill="none" xmlns="http://www.w3.org/2000/svg">
<path d="M14.524 23.4682C14.7539 24.6819 14.3626 25.9509 13.4349 26.8484L13.1166 27.1564C12.604 27.6523 11.7729 27.6523 11.2603 27.1564C10.7477 26.6605 10.7477 25.8565 11.2603 25.3606L11.5786 25.0526C11.9582 24.6854 12.0684 24.1317 11.8569 23.6544C11.3495 22.5091 10.2772 21.1259 8.63515 19.5374C6.9931 17.9488 5.5634 16.9114 4.37953 16.4205C3.8862 16.2159 3.31383 16.3225 2.9343 16.6897L2.61595 16.9977C2.10336 17.4936 1.27228 17.4936 0.759689 16.9977C0.247096 16.5018 0.247096 15.6977 0.759689 15.2018L1.07804 14.8939C2.00572 13.9964 3.31743 13.6178 4.57203 13.8403C7.52714 5.20826 14.9868 0.861664 26.6268 0.861664C27.3517 0.861664 27.9393 1.43019 27.9393 2.13151C27.9393 13.3925 23.4465 20.6093 14.524 23.4682ZM13.4262 21.1426C21.0375 18.8138 24.9739 13.0019 25.2931 3.42178C15.3906 3.73053 9.38302 7.53883 6.97592 14.9023C8.07486 15.5872 9.24331 16.5341 10.4914 17.7415C11.7395 18.949 12.7183 20.0794 13.4262 21.1426ZM17.4387 13.5601C15.9889 13.5601 14.8136 12.423 14.8136 11.0204C14.8136 9.61777 15.9889 8.48071 17.4387 8.48071C18.8886 8.48071 20.0639 9.61777 20.0639 11.0204C20.0639 12.423 18.8886 13.5601 17.4387 13.5601ZM4.69742 21.5511C5.21001 21.0551 6.04109 21.0551 6.55368 21.5511C7.06627 22.047 7.06627 22.851 6.55368 23.3469L3.92853 25.8866C3.41594 26.3825 2.58486 26.3825 2.07227 25.8866C1.55967 25.3907 1.55967 24.5866 2.07227 24.0907L4.69742 21.5511Z" fill="#FF694A"/>
</svg>
